src/assets/outline/TaskSquare.svg

<svg width="24" height="24" viewBox="0 0 24 24"  xmlns="http://www.w3.org/2000/svg">
<path d="M17.6201 9.62012H12.3701C11.9601 9.62012 11.6201 9.28012 11.6201 8.87012C11.6201 8.46012 11.9601 8.12012 12.3701 8.12012H17.6201C18.0301 8.12012 18.3701 8.46012 18.3701 8.87012C18.3701 9.28012 18.0401 9.62012 17.6201 9.62012Z" />
<path d="M7.12006 10.3803C6.93006 10.3803 6.74006 10.3103 6.59006 10.1603L5.84006 9.41031C5.55006 9.12031 5.55006 8.64031 5.84006 8.35031C6.13006 8.06031 6.61006 8.06031 6.90006 8.35031L7.12006 8.57031L8.84006 6.85031C9.13006 6.56031 9.61006 6.56031 9.90006 6.85031C10.1901 7.14031 10.1901 7.62031 9.90006 7.91031L7.65006 10.1603C7.51006 10.3003 7.32006 10.3803 7.12006 10.3803Z" />
<path d="M17.6201 16.6201H12.3701C11.9601 16.6201 11.6201 16.2801 11.6201 15.8701C11.6201 15.4601 11.9601 15.1201 12.3701 15.1201H17.6201C18.0301 15.1201 18.3701 15.4601 18.3701 15.8701C18.3701 16.2801 18.0401 16.6201 17.6201 16.6201Z" />
<path d="M7.12006 17.3803C6.93006 17.3803 6.74006 17.3103 6.59006 17.1603L5.84006 16.4103C5.55006 16.1203 5.55006 15.6403 5.84006 15.3503C6.13006 15.0603 6.61006 15.0603 6.90006 15.3503L7.12006 15.5703L8.84006 13.8503C9.13006 13.5603 9.61006 13.5603 9.90006 13.8503C10.1901 14.1403 10.1901 14.6203 9.90006 14.9103L7.65006 17.1603C7.51006 17.3003 7.32006 17.3803 7.12006 17.3803Z" />
<path d="M15 22.75H9C3.57 22.75 1.25 20.43 1.25 15V9C1.25 3.57 3.57 1.25 9 1.25H15C20.43 1.25 22.75 3.57 22.75 9V15C22.75 20.43 20.43 22.75 15 22.75ZM9 2.75C4.39 2.75 2.75 4.39 2.75 9V15C2.75 19.61 4.39 21.25 9 21.25H15C19.61 21.25 21.25 19.61 21.25 15V9C21.25 4.39 19.61 2.75 15 2.75H9Z" />
</svg>

<?xml version="1.0" encoding="UTF-8"?>
<svg width="24" height="24" viewBox="0 0 24 24" xmlns="http://www.w3.org/2000/svg">
 <path d="m17.62 9.6201h-5.25c-0.41 0-0.75-0.34-0.75-0.75s0.34-0.75 0.75-0.75h5.25c0.41 0 0.75 0.34 0.75 0.75s-0.33 0.75-0.75 0.75z"/>
 <path d="m7.1201 10.38c-0.19 0-0.38-0.07-0.53-0.22l-0.75-0.74999c-0.29-0.29-0.29-0.77 0-1.06s0.77-0.29 1.06 0l0.22 0.22 1.72-1.72c0.29-0.29 0.77-0.29 1.06 0 0.29004 0.29 0.29004 0.77 0 1.06l-2.25 2.25c-0.14 0.14-0.33 0.22-0.53 0.22z"/>
 <path d="m17.62 16.62h-5.25c-0.41 0-0.75-0.34-0.75-0.75s0.34-0.75 0.75-0.75h5.25c0.41 0 0.75 0.34 0.75 0.75s-0.33 0.75-0.75 0.75z"/>
 <path d="m7.1201 17.38c-0.19 0-0.38-0.07-0.53-0.22l-0.75-0.75c-0.29-0.29-0.29-0.77 0-1.06s0.77-0.29 1.06 0l0.22 0.22 1.72-1.72c0.29-0.29 0.77-0.29 1.06 0 0.29004 0.29 0.29004 0.77 0 1.06l-2.25 2.25c-0.14 0.14-0.33 0.22-0.53 0.22z"/>
 <path d="m15 22.75h-6c-5.43 0-7.75-2.32-7.75-7.75v-6c0-5.43 2.32-7.75 7.75-7.75h6c5.43 0 7.75 2.32 7.75 7.75v6c0 5.43-2.32 7.75-7.75 7.75zm-6-20c-4.61 0-6.25 1.64-6.25 6.25v6c0 4.61 1.64 6.25 6.25 6.25h6c4.61 0 6.25-1.64 6.25-6.25v-6c0-4.61-1.64-6.25-6.25-6.25h-6z"/>
</svg>
